!! 00000] TT[00
!! NN
!!!OTL: He bo
!!!ARE: Asia, China,ÿHeilongjiang, Ningan
!! Ethnic Group: Han
!! III, 53
!!!SCT: C0277
!!!YEM: Copyright 1995, estate of Helmut Schaffrath.
**kern
*ICvox
*Ivox
*M4/4
*k[b-e-]
*B-:
{8gg
8gg
8gg
8gg
8ff
8gg
8ccc
8aa
=1
8gg
4gg
8ff
2gg}
=2
{8.ccc
16bb-
8ccc
8fff
8ddd
8ccc
8bb-
8gg
=3
8.ddd
16ddd
8ddd
8ddd
4ccc
8aa
8gg
=4
8ff
4ff
8gg
2ff}
=5
{8ccc
8ccc
8ddd
8ccc
4bb-
8bb-
8gg
=6
8ccc
8ccc
8ddd
8ccc
4bb-
8bb-
8aa}
=7
{8gg
4gg
8gg
4bb-
4dd
=8
8ff
4ff
8dd}
{4.dd
8ff
=9
2gg
4.ff
8gg
=10
4bb-
4bb-}
{8.gg
16bb-
8gg
8ff
=11
2bb-
8gg
8ff
4dd
=12
8cc
8b-
4cc}
{8r
8gg
16ff
16gg
8dd
=13
8cc
8cc
16b-
16cc
8dd
2cc}
==
!!!AGN: Xiaodiao, Shidiao, Dieduanqiao. "Baishe zhuan" de gushi
!! Sehr alte Weise, seit Mitte der Ming-Dynastie). Kommt sehr
!!    haeufig im Qu yi, Lokaloper) vor.
!!!ONB: ESAC (Essen Associative Code) Database: CHINA
!!!AMT: simple quadruple
!!!AIN: vox
!!!EED: Helmut Schaffrath
!!!EEV: 1.0
*-
